antibot/app/images/dist/nav-site-captcha.svg

<svg width="24" height="24" viewBox="0 0 24 24" fill="none" xmlns="http://www.w3.org/2000/svg">
<g clip-path="url(#clip0_370_10940)">
<rect width="24" height="24" rx="3.84" fill="url(#paint0_linear_370_10940)"/>
<rect width="24" height="24" rx="3.84" fill="url(#paint1_linear_370_10940)"/>
<g filter="url(#filter0_d_370_10940)">
<path d="M8.6213 10.1522L6.4073 12.0002L8.6213 13.8482C8.69617 13.9081 8.75832 13.9823 8.8041 14.0666C8.84988 14.1508 8.87838 14.2434 8.88791 14.3388C8.89744 14.4342 8.88781 14.5306 8.8596 14.6222C8.83138 14.7139 8.78515 14.7989 8.72361 14.8725C8.66206 14.946 8.58645 15.0065 8.50121 15.0504C8.41597 15.0943 8.32282 15.1208 8.22722 15.1282C8.13162 15.1356 8.0355 15.1239 7.9445 15.0937C7.8535 15.0634 7.76946 15.0153 7.6973 14.9522L4.8173 12.5522C4.7366 12.4846 4.6717 12.4002 4.62718 12.3048C4.58265 12.2094 4.55957 12.1054 4.55957 12.0002C4.55957 11.8949 4.58265 11.7909 4.62718 11.6956C4.6717 11.6002 4.7366 11.5158 4.8173 11.4482L7.6973 9.04818C7.84425 8.93059 8.03141 8.87523 8.21868 8.89393C8.40596 8.91264 8.57846 9.00393 8.69926 9.14825C8.82005 9.29258 8.87954 9.47847 8.86496 9.66611C8.85039 9.85375 8.76293 10.0282 8.6213 10.1522ZM19.1813 11.4482L16.3013 9.04818C16.1543 8.93059 15.9672 8.87523 15.7799 8.89393C15.5926 8.91264 15.4201 9.00393 15.2993 9.14825C15.1785 9.29258 15.1191 9.47847 15.1336 9.66611C15.1482 9.85375 15.2357 10.0282 15.3773 10.1522L17.5973 12.0002L15.3773 13.8482C15.3041 13.9084 15.2437 13.9826 15.1995 14.0664C15.1553 14.1502 15.1282 14.2419 15.1199 14.3363C15.1115 14.4307 15.122 14.5258 15.1507 14.6161C15.1795 14.7064 15.2259 14.79 15.2873 14.8622C15.3554 14.9423 15.4399 15.0068 15.5352 15.0513C15.6304 15.0959 15.7342 15.1193 15.8393 15.1202C16.0082 15.1201 16.1718 15.0606 16.3013 14.9522L19.1813 12.5522C19.262 12.4846 19.3269 12.4002 19.3714 12.3048C19.4159 12.2094 19.439 12.1054 19.439 12.0002C19.439 11.8949 19.4159 11.7909 19.3714 11.6956C19.3269 11.6002 19.262 11.5158 19.1813 11.4482ZM14.1653 6.04218C13.9854 5.97824 13.7876 5.98772 13.6147 6.06857C13.4417 6.14943 13.3076 6.29515 13.2413 6.47418L9.4013 17.0342C9.33736 17.2141 9.34684 17.4119 9.42769 17.5848C9.50855 17.7578 9.65427 17.8919 9.8333 17.9582C9.91216 17.9866 9.99546 18.0009 10.0793 18.0002C10.2273 18.0005 10.3718 17.9551 10.4932 17.8703C10.6145 17.7855 10.7067 17.6653 10.7573 17.5262L14.5973 6.96618C14.6612 6.7863 14.6518 6.58847 14.5709 6.41553C14.49 6.24259 14.3443 6.10846 14.1653 6.04218Z" fill="#F4F8FD"/>
</g>
</g>
<defs>
<filter id="filter0_d_370_10940" x="-15.7071" y="-14.2664" width="55.4127" height="52.5333" filterUnits="userSpaceOnUse" color-interpolation-filters="sRGB">
<feFlood flood-opacity="0" result="BackgroundImageFix"/>
<feColorMatrix in="SourceAlpha" type="matrix" values="0 0 0 0 0 0 0 0 0 0 0 0 0 0 0 0 0 0 127 0" result="hardAlpha"/>
<feOffset/>
<feGaussianBlur stdDeviation="10.1333"/>
<feComposite in2="hardAlpha" operator="out"/>
<feColorMatrix type="matrix" values="0 0 0 0 0.121569 0 0 0 0 0.443137 0 0 0 0 0.823529 0 0 0 1 0"/>
<feBlend mode="normal" in2="BackgroundImageFix" result="effect1_dropShadow_370_10940"/>
<feBlend mode="normal" in="SourceGraphic" in2="effect1_dropShadow_370_10940" result="shape"/>
</filter>
<linearGradient id="paint0_linear_370_10940" x1="-4.15385" y1="-1.38462" x2="27.2308" y2="24" gradientUnits="userSpaceOnUse">
<stop stop-color="#43D88A"/>
<stop offset="1" stop-color="#18B7C0"/>
</linearGradient>
<linearGradient id="paint1_linear_370_10940" x1="-4.15385" y1="-1.38462" x2="27.2308" y2="24" gradientUnits="userSpaceOnUse">
<stop stop-color="#F9BF14"/>
<stop offset="1" stop-color="#F97616"/>
</linearGradient>
<clipPath id="clip0_370_10940">
<rect width="24" height="24" rx="3.84" fill="white"/>
</clipPath>
</defs>
</svg>

<svg width="24" height="24" fill="none" xmlns="http://www.w3.org/2000/svg"><g clip-path="url(#a)"><rect width="24" height="24" rx="3.84" fill="url(#b)"/><rect width="24" height="24" rx="3.84" fill="url(#c)"/><g filter="url(#d)"><path d="M8.621 10.152 6.407 12l2.214 1.848a.72.72 0 1 1-.924 1.104l-2.88-2.4a.72.72 0 0 1 0-1.104l2.88-2.4a.72.72 0 0 1 .924 1.104Zm10.56 1.296-2.88-2.4a.72.72 0 0 0-.924 1.104L17.597 12l-2.22 1.848a.713.713 0 0 0-.09 1.014.732.732 0 0 0 .552.258.72.72 0 0 0 .462-.168l2.88-2.4a.72.72 0 0 0 0-1.104Zm-5.016-5.406a.726.726 0 0 0-.924.432l-3.84 10.56a.726.726 0 0 0 .432.924.72.72 0 0 0 .924-.432l3.84-10.56a.726.726 0 0 0-.432-.924Z" fill="#F4F8FD"/></g></g><defs><linearGradient id="b" x1="-4.154" y1="-1.385" x2="27.231" y2="24" gradientUnits="userSpaceOnUse"><stop stop-color="#43D88A"/><stop offset="1" stop-color="#18B7C0"/></linearGradient><linearGradient id="c" x1="-4.154" y1="-1.385" x2="27.231" y2="24" gradientUnits="userSpaceOnUse"><stop stop-color="#F9BF14"/><stop offset="1" stop-color="#F97616"/></linearGradient><clipPath id="a"><rect width="24" height="24" rx="3.84" fill="#fff"/></clipPath><filter id="d" x="-15.707" y="-14.266" width="55.413" height="52.533" filterUnits="userSpaceOnUse" color-interpolation-filters="sRGB"><feFlood flood-opacity="0" result="BackgroundImageFix"/><feColorMatrix in="SourceAlpha" values="0 0 0 0 0 0 0 0 0 0 0 0 0 0 0 0 0 0 127 0" result="hardAlpha"/><feOffset/><feGaussianBlur stdDeviation="10.133"/><feComposite in2="hardAlpha" operator="out"/><feColorMatrix values="0 0 0 0 0.121569 0 0 0 0 0.443137 0 0 0 0 0.823529 0 0 0 1 0"/><feBlend in2="BackgroundImageFix" result="effect1_dropShadow_370_10940"/><feBlend in="SourceGraphic" in2="effect1_dropShadow_370_10940" result="shape"/></filter></defs></svg>
